X:14012
T:Not For Joe
T:Dilwyn
R:Polka
C:Trad.
N:Second A part very quiet
O:England, Herefordshire
Z:Paul Hardy's Session Tunebook 2015 (see www.paulhardy.net). Creative Commons cc by-nc-sa licenced.
M:4/4
L:1/8
Q:1/4=100
K:G
"G" DG DG "D" FE FE|"G" DG DG "D" FG A2|"G" DG DG "D" FE FE|"D7" .DD EF "G" .G.G G2:|
|:"G" B3/2A/2 G/2A/2B "C" c3/2B/2 A/2B/2c|"G" B3/2A/2 G/2A/2 B/2c/2 "D"dA FA|"G" B3/2A/2 G/2A/2B "C" .cc d3/2c/2|"D" B/2A/2G AF "G" G2 G2:|

